assets/svg/shop-collect-o.svg

<?xml version="1.0" encoding="UTF-8"?>
<svg width="1000px" height="1000px" viewBox="0 0 1000 1000" version="1.1" xmlns="http://www.w3.org/2000/svg" xmlns:xlink="http://www.w3.org/1999/xlink">
    <!-- Generator: sketchtool 52.4 (67378) - http://www.bohemiancoding.com/sketch -->
    <title>shop-collect-o</title>
    <desc>Created with sketchtool.</desc>
    <g id="新版图标" stroke="none" stroke-width="1" fill="none" fill-rule="evenodd">
        <g id="shop-collect-o" fill="#333333" fill-rule="nonzero">
            <g id="圆角-店铺收藏">
                <path d="M888.888889,444.444444 L885.543441,444.444444 L807.271258,222.222222 L190.206161,222.222222 L114.26549,444.444444 L111.111111,444.444444 C111.111111,505.809417 160.85725,555.555556 222.222222,555.555556 C283.587194,555.555556 333.333333,505.809417 333.333333,444.444444 L388.888889,444.444444 C388.888889,505.809417 438.635028,555.555556 500,555.555556 C561.364972,555.555556 611.111111,505.809417 611.111111,444.444444 L666.666667,444.444444 C666.666667,505.809417 716.412806,555.555556 777.777778,555.555556 C839.14275,555.555556 888.888889,505.809417 888.888889,444.444444 Z M944.444444,444.444444 C944.444444,536.491903 869.825236,611.111111 777.777778,611.111111 C719.806359,611.111111 668.747804,581.51362 638.888875,536.605399 C609.029957,581.51363 557.97141,611.111111 500,611.111111 C442.028581,611.111111 390.970026,581.51362 361.111097,536.605399 C331.252179,581.51363 280.193632,611.111111 222.222222,611.111111 C212.757994,611.111111 203.478013,610.322256 194.444444,608.80671 L194.444444,888.888889 L582.833333,888.888889 C583.109476,888.888889 583.333333,889.112747 583.333333,889.388889 L583.333333,943.944444 C583.333333,944.220587 583.109476,944.444444 582.833333,944.444444 L193.944444,944.444444 L139.388889,944.444444 C139.112747,944.444444 138.888889,944.220587 138.888889,943.944444 L138.888889,588.814079 C89.0720872,559.996593 55.5555556,506.134622 55.5555556,444.444444 L150.481395,166.666667 L846.604215,166.666667 L944.444444,444.444444 Z M167.166667,55.5555556 L832.833333,55.5555556 C833.109476,55.5555556 833.333333,55.7794132 833.333333,56.0555556 L833.333333,110.611111 C833.333333,110.887253 833.109476,111.111111 832.833333,111.111111 L167.166667,111.111111 C166.890524,111.111111 166.666667,110.887253 166.666667,110.611111 L166.666667,56.0555556 C166.666667,55.7794132 166.890524,55.5555556 167.166667,55.5555556 Z M904.201,757.985308 L931.978778,757.985308 C931.978778,769.140458 929.525058,780.436433 925.028573,791.848442 C923.282615,796.631534 921.121102,801.40948 915.526293,810.769178 C917.006506,808.795247 917.006506,808.795247 917.219216,808.430727 C917.194375,808.470383 917.194375,808.470383 918.169907,806.776452 L917.503235,807.985164 C917.649887,807.756593 917.649887,807.756593 917.049936,808.906017 C915.669778,811.498799 914.298291,813.908365 913.391812,815.160393 C911.312452,818.616893 909.062427,822.095553 906.6471,825.598258 C893.435285,844.758024 875.434682,864.48013 853.747258,884.592176 C838.591211,898.647286 822.478143,912.114152 806.152741,924.764798 C796.456123,932.278761 778.257134,945.634815 783.197127,941.894374 C775.728948,947.500052 766.71065,950.486126 757.469408,950.486126 C748.305317,950.486126 739.371881,947.606989 731.768495,941.942353 C736.885206,945.802202 718.498072,932.349361 708.824249,924.872523 C692.531653,912.280074 676.465942,898.876048 661.351621,884.868571 C638.99457,864.148759 620.567375,843.817262 607.264191,824.03785 C601.190853,815.007901 596.218883,806.13022 592.391633,797.231783 C592.122735,796.584448 592.122735,796.584448 591.962392,796.176082 C586.465475,783.039204 583.559977,770.269802 583.559977,757.960166 C583.392789,755.888794 583.333333,754.499888 583.333333,752.60475 C583.333333,689.904911 634.064305,638.888889 696.542334,638.888889 C718.420221,638.888889 739.612351,645.371708 757.710969,657.157548 C775.784272,645.370848 796.985973,638.888889 818.889765,638.888889 C881.351024,638.888889 932.098765,689.926587 932.098765,752.60475 C932.054106,755.168497 932.05189,755.295743 931.95883,756.814893 C931.964609,757.114886 931.970679,757.487792 931.978778,757.985308 L904.201,757.985308 Z M873.083851,772.158424 C875.430085,766.191685 876.423222,761.619669 876.423222,757.985308 L904.201,757.985308 L876.423222,757.985308 C876.428894,758.312261 876.428894,758.312261 876.410882,754.968286 C876.46398,754.081363 876.46398,754.081363 876.500141,753.535673 C876.540615,752.83381 876.540615,752.83381 876.54321,752.60475 C876.54321,720.538441 850.597459,694.444444 818.889765,694.444444 C803.489695,694.444444 788.648942,700.881692 777.790714,712.211355 L757.786333,733.084272 L737.729657,712.261601 C726.775832,700.889434 711.910085,694.444444 696.542334,694.444444 C664.81669,694.444444 638.888889,720.51793 638.888889,752.60475 C638.888889,752.661318 638.941231,754.968609 639.045914,759.526623 C639.081268,759.167146 639.084066,759.1387 639.108672,758.218043 C639.115821,762.366652 640.395672,767.990844 643.205188,774.69554 C643.469161,775.35063 643.569042,775.598499 643.624739,775.73993 C645.935692,781.040756 649.197461,786.839297 653.363066,793.032793 C663.917038,808.724629 679.639807,826.072219 699.114994,844.12121 C712.900112,856.896824 727.729069,869.268995 742.798141,880.915789 C746.814067,884.019674 752.645215,888.377478 757.439008,891.925822 C762.232261,888.367362 768.074787,883.988269 772.123572,880.850843 C787.2396,869.137349 802.129932,856.692412 815.970929,843.856826 C834.923517,826.280958 850.341331,809.388647 860.911031,794.060476 C862.688353,791.483004 864.315011,788.968104 866.632319,785.201898 C866.907481,784.797989 867.05486,784.539058 867.914176,783.001646 C868.451744,781.913078 868.451744,781.913078 868.967611,780.976853 L869.940941,779.28862 C871.160813,776.940824 872.130528,774.747984 873.083851,772.158424 Z" id="Combined-Shape"></path>
            </g>
        </g>
    </g>
</svg>

<svg width="1000" height="1000" xmlns="http://www.w3.org/2000/svg"><path d="M888.889 444.444h-3.346l-78.272-222.222H190.206l-75.94 222.222h-3.155c0 61.365 49.746 111.112 111.111 111.112s111.111-49.747 111.111-111.112h55.556c0 61.365 49.746 111.112 111.111 111.112s111.111-49.747 111.111-111.112h55.556c0 61.365 49.746 111.112 111.11 111.112 61.366 0 111.112-49.747 111.112-111.112zm55.555 0c0 92.048-74.619 166.667-166.666 166.667-57.972 0-109.03-29.597-138.89-74.506-29.858 44.909-80.917 74.506-138.888 74.506-57.971 0-109.03-29.597-138.889-74.506-29.859 44.909-80.917 74.506-138.889 74.506-9.464 0-18.744-.789-27.778-2.304v280.082h388.39a.5.5 0 0 1 .5.5v54.555a.5.5 0 0 1-.5.5H139.388a.5.5 0 0 1-.5-.5v-355.13c-49.817-28.817-83.333-82.68-83.333-144.37l94.925-277.777h696.123l97.84 277.777zM167.167 55.556h665.666a.5.5 0 0 1 .5.5v54.555a.5.5 0 0 1-.5.5H167.167a.5.5 0 0 1-.5-.5V56.056a.5.5 0 0 1 .5-.5zM904.2 757.986h27.778c0 11.154-2.454 22.45-6.95 33.862-1.746 4.784-3.908 9.561-9.503 18.921 1.48-1.974 1.48-1.974 1.693-2.338-.025.04-.025.04.95-1.655l-.666 1.21c.147-.23.147-.23-.453.92-1.38 2.593-2.752 5.002-3.658 6.254a200.243 200.243 0 0 1-6.745 10.438c-13.212 19.16-31.212 38.882-52.9 58.994-15.156 14.055-31.269 27.522-47.594 40.173-9.697 7.514-27.896 20.87-22.956 17.13a42.82 42.82 0 0 1-25.728 8.591c-9.164 0-18.097-2.879-25.7-8.544 5.116 3.86-13.27-9.593-22.945-17.07-16.292-12.592-32.358-25.996-47.472-40.003-22.357-20.72-40.785-41.052-54.088-60.831-6.073-9.03-11.045-17.908-14.872-26.806-.27-.648-.27-.648-.43-1.056-5.497-13.137-8.402-25.906-8.402-38.216a60.004 60.004 0 0 1-.227-5.355c0-62.7 50.731-113.716 113.21-113.716 21.877 0 43.07 6.483 61.168 18.269 18.073-11.787 39.275-18.27 61.179-18.27 62.461 0 113.209 51.039 113.209 113.717-.045 2.563-.047 2.69-.14 4.21l.02 1.17H904.2zm-31.117 14.172c2.346-5.966 3.34-10.538 3.34-14.173H904.2h-27.778c.006.327.006.327-.012-3.017.053-.887.053-.887.09-1.432.04-.702.04-.702.042-.931 0-32.067-25.946-58.16-57.653-58.16-15.4 0-30.241 6.437-41.1 17.766l-20.004 20.873-20.056-20.822c-10.954-11.373-25.82-17.818-41.188-17.818-31.725 0-57.653 26.074-57.653 58.16 0 .057.052 2.365.157 6.923.035-.36.038-.388.063-1.309.007 4.149 1.287 9.773 4.096 16.478.264.655.364.902.42 1.044 2.31 5.3 5.572 11.1 9.738 17.293 10.554 15.692 26.277 33.04 45.752 51.088 13.785 12.776 28.614 25.148 43.683 36.795 4.016 3.104 9.847 7.461 14.641 11.01 4.793-3.559 10.636-7.938 14.685-11.075 15.116-11.714 30.006-24.159 43.847-36.994 18.953-17.576 34.37-34.468 44.94-49.797 1.777-2.577 3.404-5.092 5.721-8.858.275-.404.423-.663 1.282-2.2.538-1.089.538-1.089 1.054-2.025l.973-1.688a59.337 59.337 0 0 0 3.143-7.13z" fill="#333" fill-rule="nonzero"/></svg>
